public/images/join/image-3.svg

<svg fill="none" height="474" viewBox="0 0 482 474" width="482" xmlns="http://www.w3.org/2000/svg"><path d="m265.412 2.49181c34.607-7.39115 70.521 4.32087 94.118 30.69259l48.273 53.9507 48.493 53.7519c23.705 26.275 31.519 63.234 20.478 96.855l-22.586 68.781-22.304 68.873c-10.902 33.665-39.002 58.912-73.639 66.161l-70.859 14.83-70.798 15.121c-34.607 7.391-70.521-4.321-94.117-30.692l-48.2731-53.951-48.4938-53.752c-23.70424-26.275-31.5185-63.234-20.4781-96.855l22.5863-68.781 22.3039-68.8726c10.9024-33.6658 39.0025-58.9126 73.6388-66.1617l70.86-14.8302z" fill="#101010"/></svg>

<svg width="482" height="474" viewBox="0 0 482 474" fill="none" xmlns="http://www.w3.org/2000/svg">
<path d="M265.412 2.49181C300.019 -4.89934 335.933 6.81268 359.53 33.1844L407.803 87.1351L456.296 140.887C480.001 167.162 487.815 204.121 476.774 237.742L454.188 306.523L431.884 375.396C420.982 409.061 392.882 434.308 358.245 441.557L287.386 456.387L216.588 471.508C181.981 478.899 146.067 467.187 122.471 440.816L74.1979 386.865L25.7041 333.113C1.99986 306.838 -5.8144 269.879 5.226 236.258L27.8123 167.477L50.1162 98.6044C61.0186 64.9386 89.1187 39.6918 123.755 32.4427L194.615 17.6125L265.412 2.49181Z" fill="#101010"/>
</svg>
